!!!OTL: Lieber ins Wasser
!!!OTL-incipit:Es sassen zwei Knaben beim roten, kuehlen Wein;
!!!ARE: Europa, Mitteleuropa, Deutschland / France, Lothringen, Kr. Forbach,
!!    Weiler
!!!YOR: 6, S. 160
!!    1931 aufgezeichnet
!!!SCT: Q0132A
!!!TXL: @@DE
!!!YEM: Copyright 1995, estate of Helmut Schaffrath.
**kern	**text
*ICvox	*
*M6/4	*
*k[]	*
!LO:TX:a:t=2 Lothringen	!
{4e	Es
4g	sa-
4g	-ßen
4a	ʒwei
=1	=1
4b	Kna-
4b	-ben
4a	beim
4.g	ro-
8a	-ten,
8bL	küh-
8aJ	-len
=2	=2
2a}	Wein;
{4e	sie
4g	a-
4g	-ßen,
4a	sie
=3	=3
4b	tran-
4b	-ken,
4a	sie
2g	woll-
4e	-ten
=4	=4
4f	wan-
4e;}	-dern
{4e	von
2f	Spa-
4e	-nien
=5	=5
2a	in
4g	ein
2a	frem
8.gL	des
16fJ	.
=6	=6
2.e	Lan-
2dn	-de.
4r	.
=7	=7
2r}	.
==	==
!!!Ag: Ballade, Noetigung, Flucht
!! Schlusspause ergaenzt.
!!!ONB: ESAC (Essen Associative Code) Database: BALLADE
!!!AMT: compound duple
!!!AIN: vox
!!!EED: Helmut Schaffrath
!!!EEV: 1.0
!!!source: Deutsche Volkslieder mit ihren Melodien Balladen. Herausgegeben vom Deutschen Volksliedarchiv. Sechster Band. Freiburg/Breisgau 1976.
!!!page: 160
!!!ENC: Anna Maria Matuszewska
!!!EEV: 2025/03/06
*-	*-
